X: 81
T: THE BOYS OF WEXFORD
B: O'Neill's 81
M: C
L: 1/8
Z: Transcribed by John Chambers <jc@trillian.mit.edu>
N: "With spirit"
K:G
D2 \
| (G3A) (GFED) | (d3e) d2c2 | (B2G2) (BA)(GF) | E6 F2 |
| (G3A) (GFED) | (d3e) d2c2 | B2A2 GABc | d6 d2 |
| e2B2 (g3e) | (d3c) B2G2 | c2B2 A2G2 | E4 z2(EF) |
| (G3A) (GFED) | (d3e) d2c2 | B2G2 BAGF | G4 ||


